src/assets/tokens/wehoney.svg

<svg width="41" height="41" viewBox="0 0 41 41" fill="none" xmlns="http://www.w3.org/2000/svg">
<g clip-path="url(#clip0_24437_90947)">
<g clip-path="url(#clip1_24437_90947)">
<path d="M20.4375 40.5C31.4832 40.5 40.4375 31.5457 40.4375 20.5C40.4375 9.4543 31.4832 0.5 20.4375 0.5C9.3918 0.5 0.4375 9.4543 0.4375 20.5C0.4375 31.5457 9.3918 40.5 20.4375 40.5Z" fill="#74BCE2"/>
<path d="M14.8722 10.9941H26.0069C28.1507 10.9941 29.8908 12.3274 29.8908 13.97V29.4607C29.8908 31.1033 28.1507 32.4366 26.0069 32.4366H14.8722C12.7283 32.4366 10.9883 31.1033 10.9883 29.4607V13.9688C10.9883 12.3274 12.7283 10.9941 14.8722 10.9941Z" fill="#EAEADF"/>
<path d="M26.0053 32.4986H14.8706C12.6841 32.4986 10.9062 31.1352 10.9062 29.4598V13.9692C10.9062 12.2951 12.6857 10.9316 14.8706 10.9316H26.0053C28.1918 10.9316 29.9713 12.2951 29.9713 13.9704V29.4611C29.9713 31.1364 28.1918 32.4998 26.0053 32.4998V32.4986ZM14.8706 11.0574C12.776 11.0574 11.0704 12.3642 11.0704 13.9692V29.4598C11.0704 31.066 12.776 32.3728 14.8706 32.3728H26.0053C28.1015 32.3728 29.8071 31.066 29.8071 29.4598V13.9692C29.8071 12.363 28.1015 11.0562 26.0053 11.0562H14.8706V11.0574Z" fill="black" stroke="black" stroke-width="0.6"/>
<path d="M11.6696 15.4617V29.2037C11.6696 30.6608 12.6329 31.8427 15.2728 31.8427H25.6064C27.9209 31.9408 29.2113 30.6566 29.2113 29.1983L29.2113 15.4617C29.2113 15.333 29.1949 15.2068 29.1702 15.0829L27.1987 15.4052C25.6327 15.6612 24.0075 15.66 22.4415 15.4015L19.2339 14.8725C17.1475 14.5287 14.9806 14.5323 12.8959 14.8822L11.709 15.0817C11.6844 15.2056 11.668 15.3318 11.668 15.4605L11.6696 15.4617Z" fill="#EA9B1C"/>
<g style="mix-blend-mode:multiply" opacity="0.25">
<path d="M25.6048 30.7527H15.2712C13.28 30.7527 11.668 29.1386 11.668 27.1484V29.1167C11.6688 31.1935 13.2816 31.843 15.2712 31.843H25.6048C27.596 31.843 29.2096 31.0508 29.2096 29.0607V27.1484C29.2096 29.1386 27.596 30.7527 25.6048 30.7527Z" fill="#724D35"/>
</g>
<path d="M13.7188 17.3411C13.7188 17.1621 13.8632 17.0176 14.0421 17.0176C14.2211 17.0176 14.3655 17.1621 14.3655 17.3411C14.3655 17.52 14.2211 17.6645 14.0421 17.6645C13.8632 17.6645 13.7188 17.52 13.7188 17.3411Z" fill="#F9BB62"/>
<path d="M17.8598 20.6431C17.8598 21.2507 17.3674 21.7433 16.76 21.7433C16.1526 21.7433 15.6602 21.2507 15.6602 20.6431C15.6602 20.0356 16.1526 19.543 16.76 19.543C17.3674 19.543 17.8598 20.0356 17.8598 20.6431Z" fill="#F9BB62"/>
<path d="M15.1626 25.7563C15.1626 26.1964 14.8064 26.5527 14.3665 26.5527C13.9265 26.5527 13.5703 26.1964 13.5703 25.7563C13.5703 25.3163 13.9265 24.96 14.3665 24.96C14.8064 24.96 15.1626 25.3163 15.1626 25.7563Z" fill="#F9BB62"/>
<path d="M23.2983 26.9872C23.2983 27.3091 23.0373 27.5701 22.7156 27.5701C22.3938 27.5701 22.1328 27.3091 22.1328 26.9872C22.1328 26.6654 22.3938 26.4043 22.7156 26.4043C23.0373 26.4043 23.2983 26.6654 23.2983 26.9872Z" fill="#F9BB62"/>
<path d="M24.0724 18.2474C24.0724 18.676 23.7244 19.0241 23.296 19.0241C22.8675 19.0241 22.5195 18.676 22.5195 18.2474C22.5195 17.8188 22.8675 17.4707 23.296 17.4707C23.7244 17.4707 24.0724 17.8188 24.0724 18.2474Z" fill="#F9BB62"/>
<path d="M26.1467 20.9661C26.1467 21.3947 25.7987 21.7428 25.3702 21.7428C24.9418 21.7428 24.5938 21.3947 24.5938 20.9661C24.5938 20.5376 24.9418 20.1895 25.3702 20.1895C25.7987 20.1895 26.1467 20.5376 26.1467 20.9661Z" fill="#F9BB62"/>
<path d="M27.4403 28.9941C27.4403 29.7084 26.8608 30.2897 26.1451 30.2897C25.4294 30.2897 24.8516 29.71 24.8516 28.9941C24.8516 28.2782 25.431 27.7002 26.1451 27.7002C26.8592 27.7002 27.4403 28.2798 27.4403 28.9941Z" fill="#F9BB62"/>
<path d="M24.8717 12.0645H15.9187C15.5969 12.0645 15.3359 12.3255 15.3359 12.6474C15.3359 12.9692 15.5969 13.2303 15.9187 13.2303H24.8717C25.1935 13.2303 25.4545 12.9692 25.4545 12.6474C25.4545 12.3255 25.1935 12.0645 24.8717 12.0645Z" fill="white"/>
<path d="M27.349 8.5H13.5271C13.0544 8.5 12.6719 8.73481 12.6719 9.02545V10.4983C12.6719 10.789 13.0544 11.0238 13.5271 11.0238H27.3474C27.8201 11.0238 28.2026 10.789 28.2026 10.4983V9.02545C28.2026 8.73481 27.8201 8.5 27.3474 8.5H27.349Z" fill="#724D35"/>
<g style="mix-blend-mode:multiply" opacity="0.25">
<path d="M27.349 9.76367H13.5271C13.0544 9.76367 12.6719 9.99848 12.6719 10.2891V10.4993C12.6719 10.7899 13.0544 11.0247 13.5271 11.0247H27.3474C27.8201 11.0247 28.2026 10.7899 28.2026 10.4993V10.2891C28.2026 9.99848 27.8201 9.76367 27.3474 9.76367H27.349Z" fill="#724D35"/>
</g>
</g>
</g>
<defs>
<clipPath id="clip0_24437_90947">
<rect x="0.4375" y="0.5" width="40" height="40" rx="20" fill="white"/>
</clipPath>
<clipPath id="clip1_24437_90947">
<rect width="40" height="40" fill="white" transform="translate(0.4375 0.5)"/>
</clipPath>
</defs>
</svg>

<svg xmlns="http://www.w3.org/2000/svg" fill="none" viewBox="0 0 41 41"><g clip-path="url(#a)"><g clip-path="url(#b)"><path fill="#74BCE2" d="M20.438 40.5c11.045 0 20-8.954 20-20s-8.955-20-20-20-20 8.954-20 20 8.954 20 20 20"/><path fill="#EAEADF" d="M14.872 10.994h11.135c2.144 0 3.884 1.333 3.884 2.976v15.49c0 1.643-1.74 2.977-3.884 2.977H14.872c-2.144 0-3.884-1.334-3.884-2.976V13.969c0-1.642 1.74-2.975 3.884-2.975"/><path fill="#000" stroke="#000" stroke-width=".6" d="M26.005 32.499H14.871c-2.187 0-3.965-1.364-3.965-3.04V13.97c0-1.674 1.78-3.037 3.965-3.037h11.134c2.187 0 3.966 1.363 3.966 3.038v15.491c0 1.675-1.78 3.039-3.966 3.039zM14.871 11.057c-2.095 0-3.8 1.307-3.8 2.912v15.49c0 1.607 1.705 2.914 3.8 2.914h11.134c2.097 0 3.802-1.307 3.802-2.913V13.97c0-1.607-1.705-2.914-3.802-2.914z"/><path fill="#EA9B1C" d="M11.67 15.462v13.742c0 1.457.963 2.639 3.603 2.639h10.333c2.315.098 3.605-1.186 3.605-2.645V15.462c0-.129-.016-.255-.04-.38l-1.972.323a14.8 14.8 0 0 1-4.757-.003l-3.208-.53a19.4 19.4 0 0 0-6.338.01l-1.187.2q-.04.186-.041.378z"/><path fill="#724D35" d="M25.605 30.753H15.27a3.603 3.603 0 0 1-3.603-3.605v1.969c0 2.076 1.614 2.726 3.603 2.726h10.334c1.991 0 3.605-.792 3.605-2.782v-1.913a3.605 3.605 0 0 1-3.605 3.605" opacity=".25" style="mix-blend-mode:multiply"/><path fill="#F9BB62" d="M13.719 17.341a.323.323 0 1 1 .646-.001.323.323 0 0 1-.646.001m4.141 3.302a1.1 1.1 0 1 1-2.2 0 1.1 1.1 0 0 1 2.2 0m-2.697 5.113a.796.796 0 1 1-1.592.001.796.796 0 0 1 1.592 0m8.135 1.23a.583.583 0 1 1-1.165 0 .583.583 0 0 1 1.165 0m.774-8.74a.777.777 0 1 1-1.554 0 .777.777 0 0 1 1.554 0m2.075 2.719a.777.777 0 1 1-1.554 0 .777.777 0 0 1 1.554 0m1.293 8.028a1.293 1.293 0 1 1-2.589 0 1.296 1.296 0 0 1 2.589 0"/><path fill="#fff" d="M24.872 12.065h-8.953a.583.583 0 0 0 0 1.165h8.953a.583.583 0 0 0 0-1.165"/><path fill="#724D35" d="M27.349 8.5H13.527c-.473 0-.855.235-.855.525v1.473c0 .291.382.526.855.526h13.82c.473 0 .856-.235.856-.526V9.025c0-.29-.383-.525-.856-.525z"/><path fill="#724D35" d="M27.349 9.764H13.527c-.473 0-.855.234-.855.525v.21c0 .29.382.526.855.526h13.82c.473 0 .856-.235.856-.526v-.21c0-.29-.383-.525-.856-.525z" opacity=".25" style="mix-blend-mode:multiply"/></g></g><defs><clipPath id="a"><rect width="40" height="40" x=".438" y=".5" fill="#fff" rx="20"/></clipPath><clipPath id="b"><path fill="#fff" d="M.438.5h40v40h-40z"/></clipPath></defs></svg>
